X: 25732
T: Mary MacDonald's
R: reel
M: 4/4
K: Amixolydian
|Adde efff|faaa f2 ef|Addd eeea|f2 ed eeef|
Adde efff|faaa f2 ef|Addd eeea|f2 ed eeef|
a2 fe ddde|ffed eeef|a2 fe ddde|f2 ed eeef|
a2 fe ddde|ffed eeef|a2 fe df a2|fedB A2 A2||

